packages/icons/svg/Various_Door_48px.svg

<svg xmlns="http://www.w3.org/2000/svg" viewBox="0 0 48 48"><path d="M36 4H12a2 2 0 00-2 2v36a2 2 0 002 2h24a2 2 0 002-2V6a2 2 0 00-2-2zm-1 37H13V7h22z"/><path d="M15.91 22.5h16.18a.91.91 0 00.91-.91V10.41a.91.91 0 00-.91-.91H15.91a.91.91 0 00-.91.91v11.18a.91.91 0 00.91.91zm1.09-11h14v9H17zM15.84 38.5h16.32a.85.85 0 00.84-.84v-9.32a.85.85 0 00-.84-.84H15.84a.85.85 0 00-.84.84v9.32a.85.85 0 00.84.84zm1.16-9h14v7H17zM31.88 24h-1.76a1 1 0 000 2h1.76a1 1 0 000-2z"/></svg>

<svg xmlns="http://www.w3.org/2000/svg" viewBox="0 0 48 48"><defs></defs><g id="Name"><path  d="M36,4H12a2,2,0,0,0-2,2V42a2,2,0,0,0,2,2H36a2,2,0,0,0,2-2V6A2,2,0,0,0,36,4ZM35,41H13V7H35Z"/><path  d="M15.91,22.5H32.09a.91.91,0,0,0,.91-.91V10.41a.91.91,0,0,0-.91-.91H15.91a.91.91,0,0,0-.91.91V21.59A.91.91,0,0,0,15.91,22.5ZM17,11.5H31v9H17Z"/><path  d="M15.84,38.5H32.16a.85.85,0,0,0,.84-.84V28.34a.85.85,0,0,0-.84-.84H15.84a.85.85,0,0,0-.84.84v9.32A.85.85,0,0,0,15.84,38.5Zm1.16-9H31v7H17Z"/><path  d="M31.88,24H30.12a1,1,0,0,0,0,2h1.76a1,1,0,0,0,0-2Z"/></g></svg>
